src/images/section-about-person-icon-4.svg

<svg fill="none" height="70" viewBox="0 0 94 70" width="94" xmlns="http://www.w3.org/2000/svg"><circle cx="59" cy="35" fill="#2f80ed" opacity=".1" r="35"/><g fill="#868686"><path d="m54.9643 60.9423c0 .5629-.4558 1.0192-1.0179 1.0192h-10.1785v-3.4857c-.01-3.2139-2.1555-6.0282-5.2494-6.8847l-5.9471-1.62v-1.5427c1.9065-1.3293 3.0461-3.5061 3.0536-5.8322v-1.9295c.2594-.119.4234-.2036.4548-.216.3454-.1727.5631-.526.5631-.9122v-6.1154l5.4545-2.1007c.3942-.1508.6546-.5295.6546-.952 0-.4226-.2604-.8008-.6546-.9521l-13.2321-5.0961c-.2351-.0896-.4955-.0896-.7306 0l-13.2321 5.0961c-.3917.1508-.6506.5271-.6526.9471v4.6741l-2.7554 2.7591 1.4393 1.4413 1.3161-1.3179v1.6165h2.0357v-1.6165l1.3161 1.3179 1.4393-1.4413-2.7554-2.7591v-3.1901l4.0714 1.5737v6.1154c-.0019.3881.2162.744.5631.9172.0314.0154.1954.097.4548.216v1.9245c-.0179 2.333 1.1272 4.5218 3.0536 5.8352v1.5397l-5.9506 1.621c-3.0919.857-5.2364 3.6708-5.2459 6.8837v3.4857h-10.17853c-.56211 0-1.01786-.4563-1.01786-1.0192v-39.75h28.49999v-2.0385h-28.49999v-5.0961c0-.5629.45575-1.0192 1.01786-1.0192h27.48213v-2.0385h-27.48213c-1.68632 0-3.05357 1.3691-3.05357 3.0577v46.8846c0 1.6886 1.36725 3.0577 3.05357 3.0577h50.89283c1.6864 0 3.0536-1.3691 3.0536-3.0577v-37.7115h-2.0357zm-28.5-10.1923v-1.3248c1.3265.4086 2.7449.4086 4.0714 0v1.3248c.0035.2921.1327.5683.3554.7575l-2.3911 1.9946-2.3911-1.9937c.2227-.1891.3524-.4658.3554-.7584zm2.0357-24.3894 10.3963 4.0048-10.3963 4.0047-10.3963-4.0047zm-.3653 10.053c.2351.0896.4955.0896.7306 0l5.7418-2.2117v4.6881c-1.9174.9237-3.9869 1.489-6.1071 1.6677-2.1202-.1802-4.1897-.7455-6.1071-1.6687v-4.6881zm-4.724 6.1826v-1.0939c1.6247.6425 3.3443 1.0122 5.0893 1.0939 1.745-.0817 3.4646-.4514 5.0893-1.0939v1.0939c-.0025 1.8209-.9751 3.5026-2.5516 4.4108-1.5765.9083-3.5173.9048-5.0903-.0089-.3842-.2185-.7361-.4893-1.0467-.8043-.9592-.9495-1.4964-2.2465-1.49-3.5976zm-8.1428 15.8796c.0074-2.2952 1.5397-4.3053 3.7488-4.9179l4.8011-1.3074 4.0306 3.3632c.3778.3151.9254.3151 1.3032 0l4.0306-3.3632 4.7981 1.3064c2.2101.6121 3.7434 2.6227 3.7518 4.9189v3.4857h-3.0535v-4.0769h-2.0357v4.0769h-16.2858v-4.0769h-2.0357v4.0769h-3.0535z"/><path d="m6 16h2v2h-2z"/><path d="m11 16h2v2h-2z"/><path d="m15 16h2v2h-2z"/><path d="m56 3h-20c-1.6567 0-3 1.34326-3 3v12c0 1.6567 1.3433 3 3 3h3v4c0 .4248.2681.8032.6689.9438.1065.0367.2183.0557.3311.0562.3037 0 .5913-.1377.7808-.375l3.6992-4.625h11.52c1.6567 0 3-1.3433 3-3v-12c0-1.65674-1.3433-3-3-3zm1 15c0 .5522-.4478 1-1 1h-12c-.3037 0-.5913.1377-.7808.375l-2.2192 2.7739v-2.1489c0-.5522-.4478-1-1-1h-4c-.5522 0-1-.4478-1-1v-12c0-.55225.4478-1 1-1h20c.5522 0 1 .44775 1 1z"/><path d="m39 7h15v2h-15z"/><path d="m39 11h15v2h-15z"/><path d="m39 16h15v2h-15z"/></g></svg>

<svg width="94" height="70" viewBox="0 0 94 70" fill="none" xmlns="http://www.w3.org/2000/svg">
<circle opacity="0.1" cx="59" cy="35" r="35" fill="#2F80ED"/>
<path d="M54.9643 60.9423C54.9643 61.5052 54.5085 61.9615 53.9464 61.9615H43.7679V58.4758C43.7579 55.2619 41.6124 52.4476 38.5185 51.5911L32.5714 49.9711V48.4284C34.4779 47.0991 35.6175 44.9223 35.625 42.5962V40.6667C35.8844 40.5477 36.0484 40.4631 36.0798 40.4507C36.4252 40.278 36.6429 39.9247 36.6429 39.5385V33.4231L42.0974 31.3224C42.4916 31.1716 42.752 30.7929 42.752 30.3704C42.752 29.9478 42.4916 29.5696 42.0974 29.4183L28.8653 24.3222C28.6302 24.2326 28.3698 24.2326 28.1347 24.3222L14.9026 29.4183C14.5109 29.5691 14.252 29.9454 14.25 30.3654V35.0395L11.4946 37.7986L12.9339 39.2399L14.25 37.922V39.5385H16.2857V37.922L17.6018 39.2399L19.0411 37.7986L16.2857 35.0395V31.8494L20.3571 33.4231V39.5385C20.3552 39.9266 20.5733 40.2825 20.9202 40.4557C20.9516 40.4711 21.1156 40.5527 21.375 40.6717V42.5962C21.3571 44.9292 22.5022 47.118 24.4286 48.4314V49.9711L18.478 51.5921C15.3861 52.4491 13.2416 55.2629 13.2321 58.4758V61.9615H3.05357C2.49146 61.9615 2.03571 61.5052 2.03571 60.9423V21.1923H30.5357V19.1538H2.03571V14.0577C2.03571 13.4948 2.49146 13.0385 3.05357 13.0385H30.5357V11H3.05357C1.36725 11 0 12.3691 0 14.0577V60.9423C0 62.6309 1.36725 64 3.05357 64H53.9464C55.6328 64 57 62.6309 57 60.9423V23.2308H54.9643V60.9423ZM26.4643 50.75V49.4252C27.7908 49.8338 29.2092 49.8338 30.5357 49.4252V50.75C30.5392 51.0421 30.6684 51.3183 30.8911 51.5075L28.5 53.5021L26.1089 51.5084C26.3316 51.3193 26.4613 51.0426 26.4643 50.75ZM28.5 26.3606L38.8963 30.3654L28.5 34.3701L18.1037 30.3654L28.5 26.3606ZM28.1347 36.4136C28.3698 36.5032 28.6302 36.5032 28.8653 36.4136L34.6071 34.2019V38.89C32.6897 39.8137 30.6202 40.379 28.5 40.5577C26.3798 40.3775 24.3103 39.8122 22.3929 38.889V34.2009L28.1347 36.4136ZM23.4107 42.5962L23.4107 41.5023C25.0354 42.1448 26.755 42.5145 28.5 42.5962C30.245 42.5145 31.9646 42.1448 33.5893 41.5023V42.5962C33.5868 44.4171 32.6142 46.0988 31.0377 47.007C29.4612 47.9153 27.5204 47.9118 25.9474 46.9981C25.5632 46.7796 25.2113 46.5088 24.9007 46.1938C23.9415 45.2443 23.4043 43.9473 23.4107 42.5962ZM15.2679 58.4758C15.2753 56.1806 16.8076 54.1705 19.0167 53.5579L23.8178 52.2505L27.8484 55.6137C28.2262 55.9288 28.7738 55.9288 29.1516 55.6137L33.1822 52.2505L37.9803 53.5569C40.1904 54.169 41.7237 56.1796 41.7321 58.4758V61.9615H38.6786V57.8846H36.6429V61.9615H20.3571V57.8846H18.3214V61.9615H15.2679V58.4758Z" fill="#868686"/>
<path d="M6 16H8V18H6V16Z" fill="#868686"/>
<path d="M11 16H13V18H11V16Z" fill="#868686"/>
<path d="M15 16H17V18H15V16Z" fill="#868686"/>
<path d="M56 3H36C34.3433 3 33 4.34326 33 6V18C33 19.6567 34.3433 21 36 21H39V25C39 25.4248 39.2681 25.8032 39.6689 25.9438C39.7754 25.9805 39.8872 25.9995 40 26C40.3037 26 40.5913 25.8623 40.7808 25.625L44.48 21H56C57.6567 21 59 19.6567 59 18V6C59 4.34326 57.6567 3 56 3ZM57 18C57 18.5522 56.5522 19 56 19H44C43.6963 19 43.4087 19.1377 43.2192 19.375L41 22.1489V20C41 19.4478 40.5522 19 40 19H36C35.4478 19 35 18.5522 35 18V6C35 5.44775 35.4478 5 36 5H56C56.5522 5 57 5.44775 57 6V18Z" fill="#868686"/>
<path d="M39 7H54V9H39V7Z" fill="#868686"/>
<path d="M39 11H54V13H39V11Z" fill="#868686"/>
<path d="M39 16H54V18H39V16Z" fill="#868686"/>
</svg>
